icons/Calendar-Cross.svg

<svg width="24" height="24" viewBox="0 0 24 24" fill="none" xmlns="http://www.w3.org/2000/svg">
<path d="M15.37 21.14H6.30005C5.23918 21.14 4.22177 20.7186 3.47162 19.9684C2.72148 19.2183 2.30005 18.2009 2.30005 17.14V7.89001C2.30005 6.82915 2.72148 5.81173 3.47162 5.06159C4.22177 4.31144 5.23918 3.89001 6.30005 3.89001H16.3C17.3609 3.89001 18.3783 4.31144 19.1285 5.06159C19.8786 5.81173 20.3 6.82915 20.3 7.89001V13.76" stroke="#00153F" stroke-width="1.5" stroke-linecap="round" stroke-linejoin="round"/>
<path d="M7.30005 2.39001V5.39001" stroke="#00153F" stroke-width="1.5" stroke-linecap="round" stroke-linejoin="round"/>
<path d="M16.3 2.39001V5.39001" stroke="#00153F" stroke-width="1.5" stroke-linecap="round" stroke-linejoin="round"/>
<path d="M2.30005 8.89001H20.3" stroke="#00153F" stroke-width="1.5" stroke-linecap="round" stroke-linejoin="round"/>
<path d="M18.44 16.18L16.27 18.35" stroke="#00153F" stroke-width="1.5" stroke-linecap="round" stroke-linejoin="round"/>
<path d="M18.44 18.35L16.27 16.18" stroke="#00153F" stroke-width="1.5" stroke-linecap="round" stroke-linejoin="round"/>
<path d="M17.35 21.61C19.7524 21.61 21.7 19.6624 21.7 17.26C21.7 14.8576 19.7524 12.91 17.35 12.91C14.9476 12.91 13 14.8576 13 17.26C13 19.6624 14.9476 21.61 17.35 21.61Z" stroke="#00153F" stroke-width="1.5" stroke-linecap="round" stroke-linejoin="round"/>
<path d="M7.30005 13.15V13.151" stroke="#00153F" stroke-width="2" stroke-linecap="round" stroke-linejoin="round"/>
<path d="M11.3 13.15V13.151" stroke="#00153F" stroke-width="2" stroke-linecap="round" stroke-linejoin="round"/>
<path d="M7.30005 17.15V17.151" stroke="#00153F" stroke-width="2" stroke-linecap="round" stroke-linejoin="round"/>
</svg>

<svg xmlns="http://www.w3.org/2000/svg" fill="none" viewBox="0 0 24 24"><path stroke="currentColor" stroke-linecap="round" stroke-linejoin="round" stroke-width="1.5" d="M15.37 21.14H6.3a4 4 0 0 1-4-4V7.89a4 4 0 0 1 4-4h10a4 4 0 0 1 4 4v5.87M7.3 2.39v3m9-3v3m-14 3.5h18m-1.86 7.29-2.17 2.17m2.17 0-2.17-2.17"/><path stroke="currentColor" stroke-linecap="round" stroke-linejoin="round" stroke-width="1.5" d="M17.35 21.61a4.35 4.35 0 1 0 0-8.7 4.35 4.35 0 0 0 0 8.7Z"/><path stroke="currentColor" stroke-linecap="round" stroke-linejoin="round" stroke-width="2" d="M7.3 13.15v.001m4-.001v.001m-4 3.999v.001"/></svg>
